apex/img/our-stats-item-icon1.svg

<svg width="70" height="70" viewBox="0 0 70 70" fill="none" xmlns="http://www.w3.org/2000/svg">
<g clip-path="url(#clip0)">
<path d="M62.6343 18.4186C61.1845 19.12 60.5778 20.8646 61.2792 22.3136C63.1954 26.2721 64.1667 30.5388 64.1667 35C64.1667 51.0823 51.0823 64.1667 35 64.1667C18.9177 64.1667 5.83333 51.0823 5.83333 35C5.83333 18.9177 18.9177 5.83333 35 5.83333C41.6643 5.83333 47.9249 8.00944 53.1067 12.126C54.3635 13.1293 56.2014 12.9192 57.2047 11.6581C58.208 10.3977 57.9979 8.56201 56.7361 7.56012C50.6016 2.68453 42.882 0 35 0C15.702 0 0 15.702 0 35C0 54.298 15.702 70 35 70C54.298 70 70 54.298 70 35C70 29.6523 68.8322 24.5275 66.5293 19.7737C65.8294 18.321 64.0791 17.7158 62.6343 18.4186Z" fill="#E5A132"/>
<path d="M34.9999 11.6667C33.3899 11.6667 32.0833 12.9734 32.0833 14.5834V35.0001C32.0833 36.6101 33.3899 37.9167 34.9999 37.9167H49.5833C51.1933 37.9167 52.4999 36.6101 52.4999 35.0001C52.4999 33.3901 51.1933 32.0834 49.5833 32.0834H37.9166V14.5834C37.9166 12.9734 36.61 11.6667 34.9999 11.6667Z" fill="#E5A132"/>
</g>
<defs>
<clipPath id="clip0">
<rect width="70" height="70" fill="white"/>
</clipPath>
</defs>
</svg>

<svg width="70" height="70" fill="none" xmlns="http://www.w3.org/2000/svg"><g clip-path="url(#clip0)" fill="#E5A132"><path d="M62.634 18.419a2.916 2.916 0 00-1.355 3.895c1.916 3.958 2.888 8.225 2.888 12.686 0 16.082-13.085 29.167-29.167 29.167S5.833 51.082 5.833 35 18.918 5.833 35 5.833c6.664 0 12.925 2.176 18.107 6.293a2.916 2.916 0 103.63-4.566C50.601 2.685 42.881 0 35 0 15.702 0 0 15.702 0 35c0 19.298 15.702 35 35 35 19.298 0 35-15.702 35-35 0-5.348-1.168-10.473-3.47-15.226a2.913 2.913 0 00-3.896-1.355z"/><path d="M35 11.667a2.918 2.918 0 00-2.917 2.916V35A2.918 2.918 0 0035 37.917h14.583a2.918 2.918 0 000-5.834H37.917v-17.5A2.918 2.918 0 0035 11.667z"/></g><defs><clipPath id="clip0"><path fill="#fff" d="M0 0h70v70H0z"/></clipPath></defs></svg>
